X: 42549
T: When Jessie Calls Over
R: reel
M: 4/4
K: Dmajor
|:AFGE FAGE|D2 FA dBAF|E3 F GBEB|ABBA e2 AB|
AFGE FAGE|D2 FA dBAF|EB B2 ABcd|1 edcA d2 AB:|2 edcA d2 de||
|:fd d2 fdaf|ABde f2 ef|geaf geed||cdec AGfg|
~a3 b afed|(3Bcd ef g2 ag|fd d2 fdaf|1 edce d2 de:|2 edcA dedB||

